icon-themes/breeze_svg/cmd/32/deleterows.svg

<svg viewBox="0 0 32 32" xmlns="http://www.w3.org/2000/svg"><path d="m4 4v7h1v-3h7v3h1v-3h6v3h1v-3h7v3h1v-7zm1 1h7v2h-7zm8 0h6v2h-6zm7 0h7v2h-7zm-16 15v8h24v-8h-1v3h-7v-3h-1v3h-6v-3h-1v3h-7v-3zm1 4h7v3h-7zm8 0h6v3h-6zm7 0h7v3h-7z" fill="#4d4d4d"/><path d="m4 11v1 2.732422 1.535156 2.732422 1h10 1 13v-1-7-1h-13-1zm1 1h1.3417969l-1.3417969 1.566406zm2.6582031 0h2.6835939l-5.341797 6.232422v-3.13086l2.3808594-2.777343zm3.9999999 0h2.341797.341797l-.341797.398438-5.3789062 6.27539-.28125.326172h-2.6816407l5.7226559-6.675781zm4 0h2.683594l-3.341797 3.898438-1 1.166015-1.378906 1.609375-.28125.326172h-2.6816409l4.3417969-5.064453 1-1.166016.380859-.445312zm4 0h2.683594l-5.720703 6.673828-.28125.326172h-1.339844-1-.341797l.341797-.398438.115234-.134765.884766-1.03125 4.380859-5.111328zm4 0h2.683594l-5.720703 6.673828-.28125.326172h-2.681641l5.722656-6.675781zm3.341797.769531v3.128907l-2.378906 2.77539-.28125.326172h-2.681641zm0 4.666016v1.564453h-1.341797z" fill="#da4453"/></svg>

<svg xmlns="http://www.w3.org/2000/svg" viewBox="0 0 32 32">
 <path 
     style="fill:#4d4d4d" 
     d="M 4 4 L 4 11 L 5 11 L 5 8 L 12 8 L 12 11 L 13 11 L 13 8 L 19 8 L 19 11 L 20 11 L 20 8 L 27 8 L 27 11 L 28 11 L 28 4 L 4 4 z M 5 5 L 12 5 L 12 7 L 5 7 L 5 5 z M 13 5 L 19 5 L 19 7 L 13 7 L 13 5 z M 20 5 L 27 5 L 27 7 L 20 7 L 20 5 z M 4 20 L 4 28 L 28 28 L 28 20 L 27 20 L 27 23 L 20 23 L 20 20 L 19 20 L 19 23 L 13 23 L 13 20 L 12 20 L 12 23 L 5 23 L 5 20 L 4 20 z M 5 24 L 12 24 L 12 27 L 5 27 L 5 24 z M 13 24 L 19 24 L 19 27 L 13 27 L 13 24 z M 20 24 L 27 24 L 27 27 L 20 27 L 20 24 z "
     />
 <path 
     style="fill:#da4453" 
     d="M 4 11 L 4 12 L 4 14.732422 L 4 16.267578 L 4 19 L 4 20 L 14 20 L 15 20 L 28 20 L 28 19 L 28 12 L 28 11 L 15 11 L 14 11 L 4 11 z M 5 12 L 6.3417969 12 L 5 13.566406 L 5 12 z M 7.6582031 12 L 10.341797 12 L 5 18.232422 L 5 15.101562 L 7.3808594 12.324219 L 7.6582031 12 z M 11.658203 12 L 14 12 L 14.341797 12 L 14 12.398438 L 8.6210938 18.673828 L 8.3398438 19 L 5.6582031 19 L 11.380859 12.324219 L 11.658203 12 z M 15.658203 12 L 18.341797 12 L 15 15.898438 L 14 17.064453 L 12.621094 18.673828 L 12.339844 19 L 9.6582031 19 L 14 13.935547 L 15 12.769531 L 15.380859 12.324219 L 15.658203 12 z M 19.658203 12 L 22.341797 12 L 16.621094 18.673828 L 16.339844 19 L 15 19 L 14 19 L 13.658203 19 L 14 18.601562 L 14.115234 18.466797 L 15 17.435547 L 19.380859 12.324219 L 19.658203 12 z M 23.658203 12 L 26.341797 12 L 20.621094 18.673828 L 20.339844 19 L 17.658203 19 L 23.380859 12.324219 L 23.658203 12 z M 27 12.769531 L 27 15.898438 L 24.621094 18.673828 L 24.339844 19 L 21.658203 19 L 27 12.769531 z M 27 17.435547 L 27 19 L 25.658203 19 L 27 17.435547 z "
     />
</svg>
